icons/bidmate-icon.svg

<svg fill="none" height="30" viewBox="0 0 40 40" width="40" xmlns="http://www.w3.org/2000/svg"><circle cx="20" cy="20" fill="#ff5e53" r="20"/><path d="m16.2027 6.49438c.6592-.65917 1.7297-.65917 2.3889 0l6.3281 6.32812c.6592.6592.6592 1.7297 0 2.3889l-.8438.8437c-.6592.6592-1.7297.6592-2.3888 0l-.211-.2109-5.632 5.6267.2109.211c.6592.6592.6592 1.7297 0 2.3889l-.8437.8437c-.6592.6592-1.7297.6592-2.3889 0l-6.32811-6.3281c-.65918-.6592-.65918-1.7297 0-2.3889l.84375-.8437c.65918-.6592 1.72968-.6592 2.38886 0l.21094.2109 5.63206-5.63203-.211-.21094c-.6591-.65918-.6591-1.72969 0-2.38887l.8438-.84375zm8.0156 15.18752c.6592-.6592 1.7297-.6592 2.3889 0l5.9062 5.9062c.6592.6592.6592 1.7297 0 2.3889l-2.5312 2.5313c-.6592.6591-1.7297.6591-2.3889 0l-5.9062-5.9063c-.6592-.6592-.6592-1.7297 0-2.3889l.0738-.0738-3.1008-3.0955 2.3889-2.3889 3.0955 3.0955.0738-.0738z" fill="#fff"/></svg>

<svg width="40" height="40" viewBox="0 0 40 40" fill="none" xmlns="http://www.w3.org/2000/svg">
<circle cx="20" cy="20" r="20" fill="#E71626"/>
<path d="M16.2027 6.49438C16.8619 5.83521 17.9324 5.83521 18.5916 6.49438L24.9197 12.8225C25.5789 13.4817 25.5789 14.5522 24.9197 15.2114L24.0759 16.0551C23.4167 16.7143 22.3462 16.7143 21.6871 16.0551L21.4761 15.8442L15.8441 21.4709L16.055 21.6819C16.7142 22.3411 16.7142 23.4116 16.055 24.0708L15.2113 24.9145C14.5521 25.5737 13.4816 25.5737 12.8224 24.9145L6.49429 18.5864C5.83511 17.9272 5.83511 16.8567 6.49429 16.1975L7.33804 15.3538C7.99722 14.6946 9.06772 14.6946 9.7269 15.3538L9.93784 15.5647L15.5699 9.93267L15.3589 9.72173C14.6998 9.06255 14.6998 7.99204 15.3589 7.33286L16.2027 6.48911V6.49438ZM24.2183 21.6819C24.8775 21.0227 25.948 21.0227 26.6072 21.6819L32.5134 27.5881C33.1726 28.2473 33.1726 29.3178 32.5134 29.977L29.9822 32.5083C29.323 33.1674 28.2525 33.1674 27.5933 32.5083L21.6871 26.602C21.0279 25.9428 21.0279 24.8723 21.6871 24.2131L21.7609 24.1393L18.6601 21.0438L21.049 18.6549L24.1445 21.7504L24.2183 21.6766V21.6819Z" fill="white"/>
</svg>
